!!!OTL: 508. Schaefers Liebeslied.
!!!ARE: Europa, Mitteleuropa, Deutschland, Schlesien, Hainau; Sueddeutschland
!!!SCT: E0508
!!!TXL: @@DE
!!!YEM: Copyright 1995, estate of Helmut Schaffrath.
**kern	**text
*ICvox	*
*M3/4	*
*k[b-e-]	*
*B-:	*
!LO:TX:a:t=Sehr mäßig und zierlich.	!
!LO:TX:a:t=Mündlich aus Schleſien (Hainau); auch in Süddeutſchl. bekannt.	!
{4f	Ein
=1	=1
4b-	Schä-
4dd	-fer
4dd	trägt
=2	=2
4dd	Sor-
4ff}	-gen
{4ff	des
=3	=3
4cc	Mor-
4ee-	-gens
4ee-	ſehr
=4	=4
(4dd	fruh,
4ff)}	.
{4f	ſeine
=5	=5
4b-	Schäf-
4dd	-lein
4dd	ʒu
=6	=6
4dd	weiden,
4ff}	.
{4ff	hat
=7	=7
4cc	nie-
4ee-	-mals
4ee-	keine
=8	=8
4dd	Ruh,
4r}	.
{4dd	keine
=9	=9
4cc	Ruh,
4r	.
4ee-	keine
=10	=10
2dd}	Ruh,
{4dd	hat
=11	=11
4cc	niemals
4ff	.
4ee-	keine
=12	=12
2dd;}	Ruh.
==	==
!!!AGN: Liebes - Lied
!!!ONB: ESAC (Essen Associative Code) Database: ERK1
!!!AMT: simple triple
!!!AIN: vox
!!!EED: Helmut Schaffrath
!!!EEV: 1.0
!!!GTL: Liebeslieder [Neuere (aus dem 18. bis 19. Jahrh.) - Liebeslust]
!!!URL-scan: https://rosdok.uni-rostock.de/mcrviewer/recordIdentifier/rosdok_ppn745177662/iview2/phys_0330.iview2?x=-167.80707726282276&y=1281.6193702924065&scale=0.5707458166514069&rotation=0&layout=singlePageLayout
!!!ENC: Anna Maria Matuszewska
!!!EEV: 2024/10/12
*-	*-
